svg/color/iethv.svg

<?xml version="1.0" encoding="UTF-8" ?>
<!DOCTYPE svg PUBLIC "-//W3C//DTD SVG 1.1//EN" "http://www.w3.org/Graphics/SVG/1.1/DTD/svg11.dtd">
<svg width="249pt" height="250pt" viewBox="0 0 249 250" version="1.1" xmlns="http://www.w3.org/2000/svg">
<g id="#ffffffff">
<path fill="#ffffff" opacity="1.00" d=" M 0.00 0.00 L 115.56 0.00 C 87.19 1.55 59.44 13.21 38.82 32.82 C 15.61 54.29 1.65 85.03 0.00 116.54 L 0.00 0.00 Z" />
<path fill="#ffffff" opacity="1.00" d=" M 127.47 0.00 L 249.00 0.00 L 249.00 250.00 L 0.00 250.00 L 0.00 128.45 C 1.18 148.53 6.93 168.41 17.34 185.67 C 31.13 209.07 53.00 227.37 78.20 237.41 C 84.56 242.40 92.83 243.50 100.45 245.41 C 112.00 248.19 123.94 247.87 135.72 247.45 C 151.58 246.10 167.10 241.39 181.25 234.14 C 204.31 221.50 223.34 201.74 235.17 178.27 C 241.34 165.58 244.84 151.70 246.37 137.71 C 247.20 121.01 247.11 103.77 241.13 87.90 C 237.26 77.44 233.56 66.28 225.69 58.07 C 220.39 49.97 214.54 42.18 207.55 35.45 C 186.49 14.22 157.32 1.43 127.47 0.00 Z" />
<path fill="#ffffff" opacity="1.00" d=" M 57.25 78.05 C 65.93 77.69 74.64 77.88 83.33 77.93 C 83.52 86.69 83.49 95.45 83.35 104.21 C 74.64 104.28 65.93 104.39 57.23 104.14 C 57.25 95.45 57.23 86.75 57.25 78.05 Z" />
<path fill="#ffffff" opacity="1.00" d=" M 95.31 78.10 C 104.08 77.72 112.88 77.69 121.65 78.13 C 121.57 86.77 121.56 95.41 121.65 104.05 C 112.88 104.44 104.08 104.39 95.30 104.08 C 95.37 95.42 95.36 86.76 95.31 78.10 Z" />
<path fill="#ffffff" opacity="1.00" d=" M 133.36 78.13 C 142.12 77.69 150.93 77.72 159.70 78.10 C 159.65 86.76 159.64 95.42 159.71 104.08 C 150.93 104.38 142.12 104.44 133.35 104.05 C 133.44 95.41 133.44 86.77 133.36 78.13 Z" />
<path fill="#ffffff" opacity="1.00" d=" M 171.68 77.92 C 180.38 77.88 189.09 77.70 197.78 78.04 C 197.81 86.75 197.78 95.45 197.80 104.16 C 189.09 104.38 180.37 104.29 171.66 104.21 C 171.52 95.45 171.49 86.68 171.68 77.92 Z" />
<path fill="#ffffff" opacity="1.00" d=" M 57.25 116.24 C 65.92 116.22 74.59 116.29 83.26 116.19 C 83.60 125.50 83.47 134.82 83.33 144.12 C 74.64 144.21 65.94 144.33 57.25 144.05 C 57.23 134.78 57.23 125.51 57.25 116.24 Z" />
<path fill="#ffffff" opacity="1.00" d=" M 133.36 116.27 C 142.14 116.22 150.92 116.23 159.69 116.26 C 159.65 125.50 159.65 134.74 159.69 143.97 C 150.92 144.32 142.12 144.40 133.36 143.92 C 133.43 134.70 133.43 125.49 133.36 116.27 Z" />
<path fill="#ffffff" opacity="1.00" d=" M 57.25 156.03 C 65.94 155.66 74.64 155.85 83.33 155.91 C 83.53 164.68 83.49 173.47 83.35 182.24 C 74.64 182.31 65.93 182.44 57.22 182.17 C 57.26 173.45 57.22 164.74 57.25 156.03 Z" />
<path fill="#ffffff" opacity="1.00" d=" M 95.31 156.09 C 104.08 155.69 112.88 155.66 121.64 156.12 C 121.57 164.77 121.56 173.43 121.65 182.09 C 112.88 182.47 104.07 182.43 95.29 182.11 C 95.38 173.44 95.35 164.77 95.31 156.09 Z" />
<path fill="#ffffff" opacity="1.00" d=" M 133.36 156.13 C 142.12 155.65 150.92 155.70 159.69 156.09 C 159.66 164.76 159.63 173.44 159.71 182.11 C 150.93 182.42 142.13 182.47 133.35 182.09 C 133.44 173.43 133.44 164.78 133.36 156.13 Z" />
</g>
<g id="#000000ff">
<path fill="#000000" opacity="1.00" d=" M 115.56 0.00 L 127.47 0.00 C 157.32 1.43 186.49 14.22 207.55 35.45 C 214.54 42.18 220.39 49.97 225.69 58.07 C 229.66 65.71 233.73 73.35 236.53 81.54 C 246.55 109.72 245.82 141.57 234.38 169.22 C 223.04 197.24 200.90 220.67 173.56 233.55 C 149.57 244.98 121.77 248.08 95.84 242.36 C 89.86 241.09 84.09 239.03 78.20 237.41 C 53.00 227.37 31.13 209.07 17.34 185.67 C 6.93 168.41 1.18 148.53 0.00 128.45 L 0.00 116.54 C 1.65 85.03 15.61 54.29 38.82 32.82 C 59.44 13.21 87.19 1.55 115.56 0.00 M 54.82 75.70 C 54.81 86.01 54.52 96.34 54.98 106.64 C 65.23 106.56 75.48 106.57 85.73 106.64 C 85.85 96.34 85.69 86.05 85.83 75.75 C 75.50 75.48 65.15 75.57 54.82 75.70 M 92.90 75.71 C 92.81 85.94 92.80 96.18 92.92 106.42 C 103.23 106.63 113.57 106.70 123.88 106.39 C 123.83 96.17 123.80 85.95 123.91 75.73 C 113.58 75.51 103.23 75.55 92.90 75.71 M 131.09 75.72 C 131.25 86.03 131.06 96.33 131.21 106.64 C 141.44 106.57 151.66 106.56 161.88 106.65 C 162.42 96.34 162.07 86.01 162.10 75.70 C 151.76 75.55 141.42 75.51 131.09 75.72 M 169.17 75.75 C 169.31 86.05 169.15 96.34 169.27 106.64 C 179.53 106.56 189.79 106.57 200.05 106.64 C 200.49 96.34 200.23 86.02 200.20 75.71 C 189.86 75.56 179.51 75.48 169.17 75.75 M 54.81 113.77 C 54.72 124.62 54.72 135.48 54.82 146.33 C 65.15 146.45 75.48 146.58 85.80 146.26 C 85.76 135.45 85.74 124.63 85.82 113.81 C 75.49 113.58 65.15 113.65 54.81 113.77 M 131.11 113.79 C 131.18 124.62 131.17 135.46 131.13 146.29 C 141.44 146.53 151.77 146.48 162.08 146.32 C 162.19 135.47 162.17 124.62 162.09 113.76 C 151.77 113.64 141.43 113.60 131.11 113.79 M 54.82 153.70 C 54.80 164.02 54.55 174.36 54.96 184.67 C 65.22 184.60 75.48 184.61 85.74 184.66 C 85.84 174.35 85.69 164.05 85.85 153.74 C 75.51 153.49 65.16 153.56 54.82 153.70 M 92.88 153.71 C 92.84 163.95 92.79 174.20 92.91 184.45 C 103.23 184.67 113.57 184.74 123.88 184.42 C 123.83 174.18 123.79 163.95 123.93 153.72 C 113.58 153.51 103.23 153.54 92.88 153.71 M 131.08 153.72 C 131.26 164.03 131.06 174.35 131.21 184.66 C 141.44 184.61 151.67 184.60 161.90 184.67 C 162.41 174.36 162.08 164.02 162.10 153.70 C 151.76 153.55 141.42 153.51 131.08 153.72 Z" />
</g>
<g id="#bec2c1ff">
<path fill="#bec2c1" opacity="1.00" d=" M 225.69 58.07 C 233.56 66.28 237.26 77.44 241.13 87.90 C 247.11 103.77 247.20 121.01 246.37 137.71 C 244.84 151.70 241.34 165.58 235.17 178.27 C 223.34 201.74 204.31 221.50 181.25 234.14 C 167.10 241.39 151.58 246.10 135.72 247.45 C 123.94 247.87 112.00 248.19 100.45 245.41 C 92.83 243.50 84.56 242.40 78.20 237.41 C 84.09 239.03 89.86 241.09 95.84 242.36 C 121.77 248.08 149.57 244.98 173.56 233.55 C 200.90 220.67 223.04 197.24 234.38 169.22 C 245.82 141.57 246.55 109.72 236.53 81.54 C 233.73 73.35 229.66 65.71 225.69 58.07 Z" />
</g>
<g id="#0ed99cff">
<path fill="#0ed99c" opacity="1.00" d=" M 54.82 75.70 C 65.15 75.57 75.50 75.48 85.83 75.75 C 85.69 86.05 85.85 96.34 85.73 106.64 C 75.48 106.57 65.23 106.56 54.98 106.64 C 54.52 96.34 54.81 86.01 54.82 75.70 M 57.25 78.05 C 57.23 86.75 57.25 95.45 57.23 104.14 C 65.93 104.39 74.64 104.28 83.35 104.21 C 83.49 95.45 83.52 86.69 83.33 77.93 C 74.64 77.88 65.93 77.69 57.25 78.05 Z" />
<path fill="#0ed99c" opacity="1.00" d=" M 92.90 75.71 C 103.23 75.55 113.58 75.51 123.91 75.73 C 123.80 85.95 123.83 96.17 123.88 106.39 C 113.57 106.70 103.23 106.63 92.92 106.42 C 92.80 96.18 92.81 85.94 92.90 75.71 M 95.31 78.10 C 95.36 86.76 95.37 95.42 95.30 104.08 C 104.08 104.39 112.88 104.44 121.65 104.05 C 121.56 95.41 121.57 86.77 121.65 78.13 C 112.88 77.69 104.08 77.72 95.31 78.10 Z" />
<path fill="#0ed99c" opacity="1.00" d=" M 131.09 75.72 C 141.42 75.51 151.76 75.55 162.10 75.70 C 162.07 86.01 162.42 96.34 161.88 106.65 C 151.66 106.56 141.44 106.57 131.21 106.64 C 131.06 96.33 131.25 86.03 131.09 75.72 M 133.36 78.13 C 133.44 86.77 133.44 95.41 133.35 104.05 C 142.12 104.44 150.93 104.38 159.71 104.08 C 159.64 95.42 159.65 86.76 159.70 78.10 C 150.93 77.72 142.12 77.69 133.36 78.13 Z" />
<path fill="#0ed99c" opacity="1.00" d=" M 169.17 75.75 C 179.51 75.48 189.86 75.56 200.20 75.71 C 200.23 86.02 200.49 96.34 200.05 106.64 C 189.79 106.57 179.53 106.56 169.27 106.64 C 169.15 96.34 169.31 86.05 169.17 75.75 M 171.68 77.92 C 171.49 86.68 171.52 95.45 171.66 104.21 C 180.37 104.29 189.09 104.38 197.80 104.16 C 197.78 95.45 197.81 86.75 197.78 78.04 C 189.09 77.70 180.38 77.88 171.68 77.92 Z" />
<path fill="#0ed99c" opacity="1.00" d=" M 54.81 113.77 C 65.15 113.65 75.49 113.58 85.82 113.81 C 85.74 124.63 85.76 135.45 85.80 146.26 C 75.48 146.58 65.15 146.45 54.82 146.33 C 54.72 135.48 54.72 124.62 54.81 113.77 M 57.25 116.24 C 57.23 125.51 57.23 134.78 57.25 144.05 C 65.94 144.33 74.64 144.21 83.33 144.12 C 83.47 134.82 83.60 125.50 83.26 116.19 C 74.59 116.29 65.92 116.22 57.25 116.24 Z" />
<path fill="#0ed99c" opacity="1.00" d=" M 131.11 113.79 C 141.43 113.60 151.77 113.64 162.09 113.76 C 162.17 124.62 162.19 135.47 162.08 146.32 C 151.77 146.48 141.44 146.53 131.13 146.29 C 131.17 135.46 131.18 124.62 131.11 113.79 M 133.36 116.27 C 133.43 125.49 133.43 134.70 133.36 143.92 C 142.12 144.40 150.92 144.32 159.69 143.97 C 159.65 134.74 159.65 125.50 159.69 116.26 C 150.92 116.23 142.14 116.22 133.36 116.27 Z" />
<path fill="#0ed99c" opacity="1.00" d=" M 54.82 153.70 C 65.16 153.56 75.51 153.49 85.85 153.74 C 85.69 164.05 85.84 174.35 85.74 184.66 C 75.48 184.61 65.22 184.60 54.96 184.67 C 54.55 174.36 54.80 164.02 54.82 153.70 M 57.25 156.03 C 57.22 164.74 57.26 173.45 57.22 182.17 C 65.93 182.44 74.64 182.31 83.35 182.24 C 83.49 173.47 83.53 164.68 83.33 155.91 C 74.64 155.85 65.94 155.66 57.25 156.03 Z" />
<path fill="#0ed99c" opacity="1.00" d=" M 92.88 153.71 C 103.23 153.54 113.58 153.51 123.93 153.72 C 123.79 163.95 123.83 174.18 123.88 184.42 C 113.57 184.74 103.23 184.67 92.91 184.45 C 92.79 174.20 92.84 163.95 92.88 153.71 M 95.31 156.09 C 95.35 164.77 95.38 173.44 95.29 182.11 C 104.07 182.43 112.88 182.47 121.65 182.09 C 121.56 173.43 121.57 164.77 121.64 156.12 C 112.88 155.66 104.08 155.69 95.31 156.09 Z" />
<path fill="#0ed99c" opacity="1.00" d=" M 131.08 153.72 C 141.42 153.51 151.76 153.55 162.10 153.70 C 162.08 164.02 162.41 174.36 161.90 184.67 C 151.67 184.60 141.44 184.61 131.21 184.66 C 131.06 174.35 131.26 164.03 131.08 153.72 M 133.36 156.13 C 133.44 164.78 133.44 173.43 133.35 182.09 C 142.13 182.47 150.93 182.42 159.71 182.11 C 159.63 173.44 159.66 164.76 159.69 156.09 C 150.92 155.70 142.12 155.65 133.36 156.13 Z" />
</g>
</svg>

<?xml version="1.0" encoding="utf-8"?>
<!-- Generator: Adobe Illustrator 26.0.3, SVG Export Plug-In . SVG Version: 6.00 Build 0)  -->
<svg version="1.1" id="Layer_1" xmlns="http://www.w3.org/2000/svg" xmlns:xlink="http://www.w3.org/1999/xlink" x="0px" y="0px"
	 viewBox="0 0 249 250" style="enable-background:new 0 0 249 250;" xml:space="preserve">
<style type="text/css">
	.st0{fill:#FFFFFF;}
	.st1{fill:#BEC2C1;}
	.st2{fill:#0ED99C;}
</style>
<g id="_x23_ffffffff">
	<path class="st0" d="M57.2,78.1c8.7-0.4,17.4-0.2,26.1-0.1c0.2,8.8,0.2,17.5,0,26.3c-8.7,0.1-17.4,0.2-26.1-0.1
		C57.2,95.4,57.2,86.8,57.2,78.1z"/>
	<path class="st0" d="M95.3,78.1c8.8-0.4,17.6-0.4,26.3,0c-0.1,8.6-0.1,17.3,0,25.9c-8.8,0.4-17.6,0.3-26.3,0
		C95.4,95.4,95.4,86.8,95.3,78.1z"/>
	<path class="st0" d="M133.4,78.1c8.8-0.4,17.6-0.4,26.3,0c-0.1,8.7-0.1,17.3,0,26c-8.8,0.3-17.6,0.4-26.4,0
		C133.4,95.4,133.4,86.8,133.4,78.1z"/>
	<path class="st0" d="M171.7,77.9c8.7,0,17.4-0.2,26.1,0.1c0,8.7,0,17.4,0,26.1c-8.7,0.2-17.4,0.1-26.1,0
		C171.5,95.4,171.5,86.7,171.7,77.9z"/>
	<path class="st0" d="M57.2,116.2c8.7,0,17.3,0.1,26,0c0.3,9.3,0.2,18.6,0.1,27.9c-8.7,0.1-17.4,0.2-26.1-0.1
		C57.2,134.8,57.2,125.5,57.2,116.2z"/>
	<path class="st0" d="M133.4,116.3c8.8,0,17.6,0,26.3,0c0,9.2,0,18.5,0,27.7c-8.8,0.4-17.6,0.4-26.3-0.1
		C133.4,134.7,133.4,125.5,133.4,116.3z"/>
	<path class="st0" d="M57.2,156c8.7-0.4,17.4-0.2,26.1-0.1c0.2,8.8,0.2,17.6,0,26.3c-8.7,0.1-17.4,0.2-26.1-0.1
		C57.3,173.4,57.2,164.7,57.2,156z"/>
	<path class="st0" d="M95.3,156.1c8.8-0.4,17.6-0.4,26.3,0c-0.1,8.7-0.1,17.3,0,26c-8.8,0.4-17.6,0.3-26.4,0
		C95.4,173.4,95.3,164.8,95.3,156.1z"/>
	<path class="st0" d="M133.4,156.1c8.8-0.5,17.6-0.4,26.3,0c0,8.7-0.1,17.4,0,26c-8.8,0.3-17.6,0.4-26.4,0
		C133.4,173.4,133.4,164.8,133.4,156.1z"/>
</g>
<g id="_x23_000000ff">
	<path d="M115.6,0h11.9c29.9,1.4,59,14.2,80.1,35.5c7,6.7,12.8,14.5,18.1,22.6c4,7.6,8,15.3,10.8,23.5c10,28.2,9.3,60-2.1,87.7
		c-11.3,28-33.5,51.4-60.8,64.3c-24,11.4-51.8,14.5-77.7,8.8c-6-1.3-11.8-3.3-17.6-4.9c-25.2-10-47.1-28.3-60.9-51.7
		C6.9,168.4,1.2,148.5,0,128.4v-11.9C1.6,85,15.6,54.3,38.8,32.8C59.4,13.2,87.2,1.5,115.6,0 M54.8,75.7c0,10.3-0.3,20.6,0.2,30.9
		c10.3-0.1,20.5-0.1,30.8,0c0.1-10.3,0-20.6,0.1-30.9C75.5,75.5,65.2,75.6,54.8,75.7 M92.9,75.7c-0.1,10.2-0.1,20.5,0,30.7
		c10.3,0.2,20.7,0.3,31,0c0-10.2-0.1-20.4,0-30.7C113.6,75.5,103.2,75.6,92.9,75.7 M131.1,75.7c0.2,10.3,0,20.6,0.1,30.9
		c10.2-0.1,20.4-0.1,30.7,0c0.5-10.3,0.2-20.6,0.2-31C151.8,75.6,141.4,75.5,131.1,75.7 M169.2,75.8c0.1,10.3,0,20.6,0.1,30.9
		c10.3-0.1,20.5-0.1,30.8,0c0.4-10.3,0.2-20.6,0.1-30.9C189.9,75.6,179.5,75.5,169.2,75.8 M54.8,113.8c-0.1,10.9-0.1,21.7,0,32.6
		c10.3,0.1,20.7,0.2,31-0.1c0-10.8-0.1-21.6,0-32.4C75.5,113.6,65.2,113.7,54.8,113.8 M131.1,113.8c0.1,10.8,0.1,21.7,0,32.5
		c10.3,0.2,20.6,0.2,30.9,0c0.1-10.9,0.1-21.7,0-32.6C151.8,113.6,141.4,113.6,131.1,113.8 M54.8,153.7c0,10.3-0.3,20.7,0.1,31
		c10.3-0.1,20.5-0.1,30.8,0c0.1-10.3,0-20.6,0.1-30.9C75.5,153.5,65.2,153.6,54.8,153.7 M92.9,153.7c0,10.2-0.1,20.5,0,30.7
		c10.3,0.2,20.7,0.3,31,0c0-10.2-0.1-20.5,0.1-30.7C113.6,153.5,103.2,153.5,92.9,153.7 M131.1,153.7c0.2,10.3,0,20.6,0.1,30.9
		c10.2-0.1,20.5-0.1,30.7,0c0.5-10.3,0.2-20.6,0.2-31C151.8,153.6,141.4,153.5,131.1,153.7z"/>
</g>
<g id="_x23_bec2c1ff">
	<path class="st1" d="M225.7,58.1c7.9,8.2,11.6,19.4,15.4,29.8c6,15.9,6.1,33.1,5.2,49.8c-1.5,14-5,27.9-11.2,40.6
		c-11.8,23.5-30.9,43.2-53.9,55.9c-14.1,7.2-29.7,12-45.5,13.3c-11.8,0.4-23.7,0.7-35.3-2c-7.6-1.9-15.9-3-22.2-8
		c5.9,1.6,11.7,3.7,17.6,4.9c25.9,5.7,53.7,2.6,77.7-8.8c27.3-12.9,49.5-36.3,60.8-64.3c11.4-27.6,12.2-59.5,2.1-87.7
		C233.7,73.3,229.7,65.7,225.7,58.1z"/>
</g>
<g id="_x23_0ed99cff">
	<path class="st2" d="M54.8,75.7c10.3-0.1,20.7-0.2,31,0.1c-0.1,10.3,0,20.6-0.1,30.9c-10.2-0.1-20.5-0.1-30.8,0
		C54.5,96.3,54.8,86,54.8,75.7 M57.2,78.1c0,8.7,0,17.4,0,26.1c8.7,0.2,17.4,0.1,26.1,0.1c0.1-8.8,0.2-17.5,0-26.3
		C74.6,77.9,65.9,77.7,57.2,78.1z"/>
	<path class="st2" d="M92.9,75.7c10.3-0.2,20.7-0.2,31,0c-0.1,10.2-0.1,20.4,0,30.7c-10.3,0.3-20.6,0.2-31,0
		C92.8,96.2,92.8,85.9,92.9,75.7 M95.3,78.1c0.1,8.7,0.1,17.3,0,26c8.8,0.3,17.6,0.4,26.3,0c-0.1-8.6-0.1-17.3,0-25.9
		C112.9,77.7,104.1,77.7,95.3,78.1z"/>
	<path class="st2" d="M131.1,75.7c10.3-0.2,20.7-0.2,31,0c0,10.3,0.3,20.6-0.2,31c-10.2-0.1-20.4-0.1-30.7,0
		C131.1,96.3,131.2,86,131.1,75.7 M133.4,78.1c0.1,8.6,0.1,17.3,0,25.9c8.8,0.4,17.6,0.3,26.4,0c-0.1-8.7-0.1-17.3,0-26
		C150.9,77.7,142.1,77.7,133.4,78.1z"/>
	<path class="st2" d="M169.2,75.8c10.3-0.3,20.7-0.2,31,0c0,10.3,0.3,20.6-0.1,30.9c-10.3-0.1-20.5-0.1-30.8,0
		C169.1,96.3,169.3,86.1,169.2,75.8 M171.7,77.9c-0.2,8.8-0.2,17.5,0,26.3c8.7,0.1,17.4,0.2,26.1,0c0-8.7,0-17.4,0-26.1
		C189.1,77.7,180.4,77.9,171.7,77.9z"/>
	<path class="st2" d="M54.8,113.8c10.3-0.1,20.7-0.2,31,0c-0.1,10.8-0.1,21.6,0,32.4c-10.3,0.3-20.7,0.2-31,0.1
		C54.7,135.5,54.7,124.6,54.8,113.8 M57.2,116.2c0,9.3,0,18.5,0,27.8c8.7,0.3,17.4,0.2,26.1,0.1c0.1-9.3,0.3-18.6-0.1-27.9
		C74.6,116.3,65.9,116.2,57.2,116.2z"/>
	<path class="st2" d="M131.1,113.8c10.3-0.2,20.7-0.2,31,0c0.1,10.9,0.1,21.7,0,32.6c-10.3,0.2-20.6,0.2-30.9,0
		C131.2,135.5,131.2,124.6,131.1,113.8 M133.4,116.3c0.1,9.2,0.1,18.4,0,27.7c8.8,0.5,17.6,0.4,26.3,0.1c0-9.2,0-18.5,0-27.7
		C150.9,116.2,142.1,116.2,133.4,116.3z"/>
	<path class="st2" d="M54.8,153.7c10.3-0.1,20.7-0.2,31,0c-0.2,10.3,0,20.6-0.1,30.9c-10.3-0.1-20.5-0.1-30.8,0
		C54.5,174.4,54.8,164,54.8,153.7 M57.2,156c0,8.7,0,17.4,0,26.1c8.7,0.3,17.4,0.1,26.1,0.1c0.1-8.8,0.2-17.6,0-26.3
		C74.6,155.9,65.9,155.7,57.2,156z"/>
	<path class="st2" d="M92.9,153.7c10.4-0.2,20.7-0.2,31.1,0c-0.1,10.2-0.1,20.5-0.1,30.7c-10.3,0.3-20.6,0.2-31,0
		C92.8,174.2,92.8,163.9,92.9,153.7 M95.3,156.1c0,8.7,0.1,17.4,0,26c8.8,0.3,17.6,0.4,26.4,0c-0.1-8.7-0.1-17.3,0-26
		C112.9,155.7,104.1,155.7,95.3,156.1z"/>
	<path class="st2" d="M131.1,153.7c10.3-0.2,20.7-0.2,31,0c0,10.3,0.3,20.7-0.2,31c-10.2-0.1-20.5-0.1-30.7,0
		C131.1,174.4,131.3,164,131.1,153.7 M133.4,156.1c0.1,8.6,0.1,17.3,0,26c8.8,0.4,17.6,0.3,26.4,0c-0.1-8.7-0.1-17.4,0-26
		C150.9,155.7,142.1,155.6,133.4,156.1z"/>
</g>
</svg>
